X: 29715
T: Nuit Sauvage
R: reel
M: 4/4
K: Ddorian
|:f3a gecd|edcA GcAF|D2fa gecd|edd^c dAde|
effa gecd|edcA GcAF|D2fa gecd|1 edd^c dAde:|2 edd^c dz3||
|:BdAB GABd|effa g3g|fgaf gfdf|edce d2dc|
BdAB GABd|effa g3a|a_baf gfdf|1 edce d2dc:|2 edce d4||
|:_B2fB BgBB|afdf edcA|_B2fB BgBB|afdf eeec|
_B2fB BgBB|afdf edcA|a2a_b afdf|1 edce d2dA:|2 edce d4||

